boxicons/svg/regular/bx-expand.svg

<svg xmlns="http://www.w3.org/2000/svg" width="24" height="24" viewBox="0 0 24 24"><path d="m21 15.344-2.121 2.121-3.172-3.172-1.414 1.414 3.172 3.172L15.344 21H21zM3 8.656l2.121-2.121 3.172 3.172 1.414-1.414-3.172-3.172L8.656 3H3zM21 3h-5.656l2.121 2.121-3.172 3.172 1.414 1.414 3.172-3.172L21 8.656zM3 21h5.656l-2.121-2.121 3.172-3.172-1.414-1.414-3.172 3.172L3 15.344z"/></svg>

<svg xmlns="http://www.w3.org/2000/svg" width="24" height="24" viewBox="0 0 24 24"><path d="M21 15.344L18.879 17.465 15.707 14.293 14.293 15.707 17.465 18.879 15.344 21 21 21zM3 8.656L5.121 6.535 8.293 9.707 9.707 8.293 6.535 5.121 8.656 3 3 3zM21 3L15.344 3 17.465 5.121 14.293 8.293 15.707 9.707 18.879 6.535 21 8.656zM3 21L8.656 21 6.535 18.879 9.707 15.707 8.293 14.293 5.121 17.465 3 15.344z"/></svg>
